theme/essential/pix_core/t/locktime.svg

<!DOCTYPE svg PUBLIC "-//W3C//DTD SVG 1.1//EN" "http://www.w3.org/Graphics/SVG/1.1/DTD/svg11.dtd" [
	<!ENTITY ns_flows "http://ns.adobe.com/Flows/1.0/">
]><svg xmlns="http://www.w3.org/2000/svg" width="12" height="12" viewBox="0 0 12 12" preserveAspectRatio="xMinYMid meet" overflow="visible"><path d="M6.5 0h-1c-1.7 0-3 1.3-3 3v2h-1.5c-.5 0-1 .5-1 1v5c0 .6.4 1 1 1h10c.6 0 1-.4 1-1v-2c0 1.7-1.4 3-3 3-1.7 0-3-1.3-3-3s1.3-3 3-3 3 1.3 3 3v-3c0-.5-.5-1-1-1h-1.5v-2c0-1.7-1.3-3-3-3zm1 3v2h-3v-2c0-.6.5-1 1-1h1c.6 0 1 .4 1 1zm3.5 6v1h-3v-3h1v2h2z" fill="#999"/></svg>

<!DOCTYPE svg PUBLIC "-//W3C//DTD SVG 1.1//EN" "http://www.w3.org/Graphics/SVG/1.1/DTD/svg11.dtd" [
	<!ENTITY ns_flows "http://ns.adobe.com/Flows/1.0/">
]><svg xmlns="http://www.w3.org/2000/svg" width="12" height="12" viewBox="0 0 12 12" preserveAspectRatio="xMinYMid meet" overflow="visible"><path d="M6.5 0h-1c-1.7 0-3 1.3-3 3v2H1c-.5 0-1 .5-1 1v5c0 .6.4 1 1 1h10c.6 0 1-.4 1-1V9c0 1.7-1.4 3-3 3-1.7 0-3-1.3-3-3s1.3-3 3-3 3 1.3 3 3V6c0-.5-.5-1-1-1H9.5V3c0-1.7-1.3-3-3-3zm1 3v2h-3V3c0-.6.5-1 1-1h1c.6 0 1 .4 1 1zM11 9v1H8V7h1v2h2z" fill="#999"/></svg>
